assets/images/members/navyfederal/navyfederal.svg

<svg xmlns="http://www.w3.org/2000/svg" class="global-nav__desktop-logo-svg" viewBox="0 0 277.2 27"><title>NFCU Desktop Logo</title><path d="M83.2 20.13h3.18v-4.69H91v-2.38h-4.61v-2.87h5V7.81H83.2Zm12.18-5h5.18v-2.39h-5.18v-2.57h5.5V7.81h-8.67v12.32H101v-2.4h-5.62V15.1Zm15.87-6.33a7.8 7.8 0 0 0-4.4-1H102v12.33h4.91a9.3 9.3 0 0 0 3.39-.48c2.34-1 3.15-3 3.15-5.73a6 6 0 0 0-2.2-5.12m-4.62 8.95h-1.38v-7.63h1.26c1 0 3.6 0 3.6 3.74 0 2.9-1.36 3.87-3.48 3.89m10.77-2.65h5.18v-2.36h-5.18v-2.57h5.5V7.81h-8.67v12.32H123v-2.4h-5.63V15.1Zm13.36-1V14a4.1 4.1 0 0 0 1.76-.63 2.43 2.43 0 0 0 1.06-2.29 3.28 3.28 0 0 0-.8-2.39c-.69-.75-1.47-.89-3.55-.89h-5.34v12.33h3.22V15.3h1.34c1.44 0 1.49.55 1.63 2a21 21 0 0 0 .38 2.79h3.47a21 21 0 0 1-.54-3c-.27-1.91-.39-2.97-2.64-3.03Zm-1.14-1.1a4.1 4.1 0 0 1-1.33.1h-1.2v-3h1.2c.93 0 2.18 0 2.18 1.52a1.43 1.43 0 0 1-.85 1.38m9-5.2-4.56 12.35h3.2l.78-2.48h4.62l.8 2.48h3.62l-4.55-12.37Zm.18 7.59 1.6-5.18 1.49 5.18Zm12-7.59h-3.3v12.33h8.43V17.7h-5.18Zm16 10.19c-2.48 0-2.5-3.11-2.5-3.87 0-2.26.59-4.16 2.53-4.16a1.75 1.75 0 0 1 1.87 1.71h3.3A3.94 3.94 0 0 0 171 9a5.36 5.36 0 0 0-4.21-1.5 5.23 5.23 0 0 0-4.38 1.81A7.24 7.24 0 0 0 161 14a7.14 7.14 0 0 0 1.49 4.69 5.85 5.85 0 0 0 4.38 1.64c1.5 0 5.18-.32 5.2-4.19h-3.37a1.8 1.8 0 0 1-1.94 1.86Zm12.81-3.92V14a4.1 4.1 0 0 0 1.76-.63 2.42 2.42 0 0 0 1.06-2.29 3.28 3.28 0 0 0-.8-2.39c-.69-.75-1.47-.89-3.55-.89h-5.38v12.33h3.22V15.3h1.34c1.44 0 1.49.55 1.63 2a21 21 0 0 0 .38 2.79h3.47a21 21 0 0 1-.54-3c-.25-1.91-.38-2.97-2.62-3.03ZM178.44 13a4.1 4.1 0 0 1-1.33.1h-1.2v-3h1.2c.93 0 2.18 0 2.18 1.52a1.43 1.43 0 0 1-.85 1.38m8.08 2.12h5.18v-2.38h-5.18v-2.57H192V7.81h-8.67v12.32h8.8v-2.4h-5.63V15.1Zm15.89-6.32a7.8 7.8 0 0 0-4.4-1h-4.88v12.33H198a9.3 9.3 0 0 0 3.39-.48c2.34-1 3.15-3 3.15-5.73a6 6 0 0 0-2.13-5.12m-4.62 8.95h-1.38v-7.63h1.26c1 0 3.6 0 3.6 3.74 0 2.9-1.36 3.87-3.49 3.89Zm7.5 2.38h3.3V7.78h-3.3Zm3.89-9.9h3.52v9.9h3.23v-9.9h3.6V7.78h-10.36ZM232.76 15c0 1.23-.27 3-2.3 3a2.26 2.26 0 0 1-2-1 3.55 3.55 0 0 1-.37-1.86V7.78h-3.23v7c0 2 0 5.64 5.47 5.64 1.46 0 3.52-.29 4.64-1.76a6.3 6.3 0 0 0 .9-3.76V7.78h-3.12V15Zm12.73 2-3.9-9.2h-4.42v12.33H240v-9.59l4 9.59h4.32V7.78h-2.8Zm3.94 3.15h3.3V7.78h-3.3Zm10.06-12.71A6.24 6.24 0 0 0 255 9.15a7.57 7.57 0 0 0-1.61 4.85c0 4.6 2.86 6.41 5.94 6.41 2.75 0 6-1.5 6-6.43.02-2.98-1.23-6.54-5.84-6.54m-.13 10.47c-2.13 0-2.67-1.95-2.67-3.92 0-2.12.58-4.07 2.69-4.07a2.21 2.21 0 0 1 1.92.89 5.4 5.4 0 0 1 .73 3.13c-.03 1.71-.38 3.96-2.67 3.96Zm15-10.12v9.2l-3.9-9.2h-4.42v12.34h2.82v-9.59l4 9.59h4.32V7.78ZM41 17l-3.9-9.2h-4.43v12.33h2.82v-9.59l4 9.59h4.32V7.78H41Zm8-9.2-4.58 12.33h3.2l.78-2.48H53l.8 2.48h3.62L52.88 7.78Zm.18 7.59 1.6-5.18 1.49 5.18Zm12.32 1.34-2.62-8.95h-3.54l4.08 12.35h3.82l4.21-12.35h-3.18ZM73.95 13l-2.53-5.22h-3.71l4.4 7.83v4.52h3.23v-4.36l4.51-8h-3.3ZM27 13.5A13.49 13.49 0 0 0 14.67.08 9 9 0 0 0 13.48 0a9 9 0 0 0-1.13.08 13.53 13.53 0 0 0-9.58 5.25l-.25.34-.26.33a13.46 13.46 0 0 0 10 20.89 8.6 8.6 0 0 0 2.39 0A13.49 13.49 0 0 0 27 13.5m-7.3 10h-1.93a17 17 0 0 0 1.32-3.75h3.13a12.3 12.3 0 0 1-2.56 3.7ZM4.73 19.7h3.13a17 17 0 0 0 1.32 3.75H7.29a12.4 12.4 0 0 1-2.56-3.75M.86 13.92H2.6a16.3 16.3 0 0 0 .88 4.92H2a12.5 12.5 0 0 1-1.14-4.92m4-6.92a12.1 12.1 0 0 1 2.45-3.45h1.88a16 16 0 0 0-1.08 2.82L8 6.78l-.11.41v.11H4.73Zm17.36.3h-3.13a17 17 0 0 0-1.32-3.75h1.89a12.4 12.4 0 0 1 2.56 3.75m3.87 5.77h-1.73a16.2 16.2 0 0 0-.89-4.92h1.44a12.5 12.5 0 0 1 1.18 4.92m-2.59 0h-3.73a27.7 27.7 0 0 0-.49-4.92h3.29a15.3 15.3 0 0 1 .94 4.92ZM8.82 7a15.3 15.3 0 0 1 1.33-3.45h2.9V7.3h-4.3c.02-.1.04-.21.07-.3m.84-4.3H8.28a9.2 9.2 0 0 1 2.39-1.33 8 8 0 0 0-1.01 1.32ZM13.05.9v1.8h-2.37A4 4 0 0 1 13.05.9m.85 1.8V.89a4 4 0 0 1 2.36 1.8Zm2.89.85A16 16 0 0 1 18.2 7.3h-4.3V3.55Zm-3.74 4.6v4.92H8a26.6 26.6 0 0 1 .52-4.92Zm0 5.77v4.92H8.56A26 26 0 0 1 8 13.92Zm0 5.77v3.75h-2.89a15.8 15.8 0 0 1-1.41-3.74Zm0 4.61v1.8a4 4 0 0 1-2.36-1.8Zm.85 0h2.36a4 4 0 0 1-2.36 1.8Zm0-.85V19.7h4.3a15.9 15.9 0 0 1-1.41 3.75Zm0-4.6v-4.93h5a26.4 26.4 0 0 1-.52 4.92Zm0-5.77V8.15h4.5a26.4 26.4 0 0 1 .52 4.92Zm3.4-10.39a8.4 8.4 0 0 0-1-1.35 9.2 9.2 0 0 1 2.4 1.35ZM7.69 8.15a28 28 0 0 0-.5 4.92H3.45a15.5 15.5 0 0 1 .93-4.92ZM2.6 13.07H.87A12.4 12.4 0 0 1 2 8.15h1.48a16.3 16.3 0 0 0-.88 4.92m.85.85h3.73a27.4 27.4 0 0 0 .49 4.92H4.38a15.3 15.3 0 0 1-.93-4.92m6.21 10.39a8 8 0 0 0 1 1.34 9 9 0 0 1-2.43-1.34Zm7.64 0h1.4a9.1 9.1 0 0 1-2.43 1.34 8.4 8.4 0 0 0 1.03-1.34m2-5.46a28 28 0 0 0 .49-4.92h3.73a15.3 15.3 0 0 1-.93 4.92Zm5.08-4.92h1.73a12.5 12.5 0 0 1-1.18 4.92h-1.46a16.2 16.2 0 0 0 .89-4.93Zm.11-6.62h-1.35a13.6 13.6 0 0 0-2.32-3.75h.41a12.8 12.8 0 0 1 3.24 3.74ZM5.72 3.55h.41a13 13 0 0 0-1.84 2.71l-.18.38-.2.36-.12.27H2.48a13 13 0 0 1 .72-1.11 12.7 12.7 0 0 1 2.52-2.61M2.48 19.7h1.33a13.5 13.5 0 0 0 2.32 3.75h-.41a12.7 12.7 0 0 1-3.24-3.75m18.75 3.76h-.41a13.6 13.6 0 0 0 2.32-3.75h1.33a12.7 12.7 0 0 1-3.24 3.74Z" class="cls-1"/></svg>

<svg xmlns="http://www.w3.org/2000/svg" role="img" viewBox="0 0 277.2 27" class="global-nav__desktop-logo-svg">
	<title>NFCU Desktop Logo</title>
	<path class="cls-1" d="M83.2,20.13h3.18V15.44H91V13.06H86.39V10.19h5V7.81H83.2Zm12.18-5h5.18V12.74H95.38V10.17h5.5V7.81H92.21V20.13H101V17.73H95.38V15.1ZM111.25,8.8a7.82,7.82,0,0,0-4.4-1H102V20.13h4.91a9.29,9.29,0,0,0,3.39-.48c2.34-1,3.15-3,3.15-5.73A6,6,0,0,0,111.25,8.8Zm-4.62,8.95h-1.38V10.12l1.26,0c1,0,3.6,0,3.6,3.74C110.11,16.76,108.75,17.73,106.63,17.75Zm10.77-2.65h5.18V12.74h-5.18V10.17h5.5V7.81h-8.67V20.13H123V17.73h-5.63V15.1Zm13.36-1V14a4.07,4.07,0,0,0,1.76-.63,2.43,2.43,0,0,0,1.06-2.29,3.28,3.28,0,0,0-.8-2.39c-.69-.75-1.47-.89-3.55-.89h-5.34V20.13h3.22V15.3h1.34c1.44,0,1.49.55,1.63,2a20.83,20.83,0,0,0,.38,2.79h3.47a21,21,0,0,1-.54-3C133.12,15.18,133,14.12,130.75,14.06ZM129.62,13a4.1,4.1,0,0,1-1.33.1h-1.2v-3h1.2c.93,0,2.18,0,2.18,1.52A1.43,1.43,0,0,1,129.62,13Zm9-5.2-4.56,12.35h3.2l.78-2.48h4.62l.8,2.48h3.62L142.53,7.78Zm.18,7.59,1.6-5.18h0l1.49,5.18Zm12-7.59H147.5V20.13h8.43V17.7h-5.18Zm16,10.19c-2.48,0-2.5-3.11-2.5-3.87,0-2.26.59-4.16,2.53-4.16a1.75,1.75,0,0,1,1.87,1.71H172A3.94,3.94,0,0,0,171,9a5.36,5.36,0,0,0-4.21-1.5,5.23,5.23,0,0,0-4.38,1.81A7.24,7.24,0,0,0,161,14a7.14,7.14,0,0,0,1.49,4.69,5.85,5.85,0,0,0,4.38,1.64c1.5,0,5.18-.32,5.2-4.19H168.7A1.8,1.8,0,0,1,166.76,18Zm12.81-3.92V14a4.07,4.07,0,0,0,1.76-.63,2.42,2.42,0,0,0,1.06-2.29,3.28,3.28,0,0,0-.8-2.39c-.69-.75-1.47-.89-3.55-.89H172.7V20.13h3.22V15.3h1.34c1.44,0,1.49.55,1.63,2a21,21,0,0,0,.38,2.79h3.47a21,21,0,0,1-.54-3C181.95,15.18,181.82,14.12,179.58,14.06ZM178.44,13a4.11,4.11,0,0,1-1.33.1h-1.2v-3h1.2c.93,0,2.18,0,2.18,1.52A1.43,1.43,0,0,1,178.44,13Zm8.08,2.12h5.18V12.74h-5.18V10.17H192V7.81h-8.67V20.13h8.8V17.73h-5.63V15.1ZM202.41,8.8a7.82,7.82,0,0,0-4.4-1h-4.88V20.13H198a9.3,9.3,0,0,0,3.39-.48c2.34-1,3.15-3,3.15-5.73A6,6,0,0,0,202.41,8.8Zm-4.62,8.95h-1.38V10.12l1.26,0c1,0,3.6,0,3.6,3.74C201.27,16.76,199.91,17.73,197.78,17.75Zm7.5,2.38h3.3V7.78h-3.3Zm3.89-9.9h3.52v9.9h3.23v-9.9h3.6V7.78H209.17ZM232.76,15c0,1.23-.27,3-2.3,3a2.26,2.26,0,0,1-2-1,3.55,3.55,0,0,1-.37-1.86V7.78h-3.23l0,7c0,2,0,5.64,5.47,5.64,1.46,0,3.52-.29,4.64-1.76a6.31,6.31,0,0,0,.9-3.76V7.78h-3.12V15Zm12.73,2-3.9-9.2h-4.42V20.13H240l0-9.59,4,9.59h4.32V7.78h-2.8Zm3.94,3.15h3.3V7.78h-3.3ZM259.49,7.44A6.24,6.24,0,0,0,255,9.15,7.57,7.57,0,0,0,253.39,14c0,4.6,2.86,6.41,5.94,6.41,2.75,0,6-1.5,6-6.43C265.35,11,264.1,7.44,259.49,7.44Zm-.13,10.47c-2.13,0-2.67-1.95-2.67-3.92,0-2.12.58-4.07,2.69-4.07a2.21,2.21,0,0,1,1.92.89,5.41,5.41,0,0,1,.73,3.13C262,15.65,261.65,17.9,259.36,17.9Zm15-10.12,0,9.2-3.9-9.2h-4.42V20.13h2.82l0-9.59,4,9.59h4.32V7.78ZM41,17l-3.9-9.2H32.67V20.13h2.82l0-9.59,4,9.59h4.32V7.78H41Zm8-9.2L44.42,20.13h3.2l.78-2.48H53l.8,2.48h3.62L52.88,7.78Zm.18,7.59,1.6-5.18h0l1.49,5.18ZM61.5,16.73,58.88,7.78H55.34l4.08,12.35h3.82L67.45,7.78H64.27ZM73.95,13,71.42,7.78H67.71l4.4,7.83v4.52h3.23V15.77l4.51-8h-3.3Z"></path><path class="cls-1" d="M27,13.5A13.49,13.49,0,0,0,14.67.08,8.73,8.73,0,0,0,13.48,0a8.89,8.89,0,0,0-1.13.08A13.53,13.53,0,0,0,2.77,5.33h0l-.25.34L2.26,6h0a13.46,13.46,0,0,0,10,20.89,8.59,8.59,0,0,0,2.39,0A13.49,13.49,0,0,0,27,13.5Zm-7.3,10H17.77a16.91,16.91,0,0,0,1.32-3.75h3.13A12.31,12.31,0,0,1,19.66,23.45ZM4.73,19.7H7.86a17,17,0,0,0,1.32,3.75H7.29A12.43,12.43,0,0,1,4.73,19.7ZM.86,13.92H2.6a16.27,16.27,0,0,0,.88,4.92H2A12.48,12.48,0,0,1,.86,13.92ZM4.86,7A12.12,12.12,0,0,1,7.31,3.55H9.19A16.16,16.16,0,0,0,8.11,6.37h0L8,6.78l-.11.41h0l0,.11H4.73Zm17.36.3H19.09a16.94,16.94,0,0,0-1.32-3.75h1.89A12.36,12.36,0,0,1,22.22,7.3Zm3.87,5.77H24.36a16.2,16.2,0,0,0-.89-4.92h1.44A12.51,12.51,0,0,1,26.09,13.07Zm-2.59,0H19.77a27.69,27.69,0,0,0-.49-4.92h3.29A15.31,15.31,0,0,1,23.51,13.07ZM8.82,7a15.26,15.26,0,0,1,1.33-3.45h2.9V7.3H8.75C8.77,7.2,8.79,7.09,8.82,7Zm.84-4.3H8.28a9.24,9.24,0,0,1,2.39-1.33A7.83,7.83,0,0,0,9.66,2.69ZM13.05.9v1.8H10.68A4,4,0,0,1,13.05.9Zm.85,1.8V.89a4,4,0,0,1,2.36,1.8Zm2.89.85A15.94,15.94,0,0,1,18.2,7.3H13.9V3.55ZM13.05,8.15v4.92H8a26.63,26.63,0,0,1,.52-4.92Zm0,5.77v4.92H8.56A26.11,26.11,0,0,1,8,13.92Zm0,5.77v3.75H10.16A15.82,15.82,0,0,1,8.75,19.7Zm0,4.61v1.8a4,4,0,0,1-2.36-1.8Zm.85,0h2.36a4,4,0,0,1-2.36,1.8Zm0-.85V19.7h4.3a15.87,15.87,0,0,1-1.41,3.75Zm0-4.6V13.92h5a26.41,26.41,0,0,1-.52,4.92Zm0-5.77V8.15H18.4a26.4,26.4,0,0,1,.52,4.92ZM17.3,2.69a8.37,8.37,0,0,0-1-1.35A9.24,9.24,0,0,1,18.7,2.69ZM7.69,8.15a27.88,27.88,0,0,0-.5,4.92H3.45a15.45,15.45,0,0,1,.93-4.92ZM2.6,13.07H.87A12.41,12.41,0,0,1,2,8.15H3.48A16.33,16.33,0,0,0,2.6,13.07Zm.85.85H7.18a27.42,27.42,0,0,0,.49,4.92H4.38A15.33,15.33,0,0,1,3.45,13.92ZM9.66,24.31a8,8,0,0,0,1,1.34,9.08,9.08,0,0,1-2.43-1.34Zm7.64,0h1.4a9.13,9.13,0,0,1-2.43,1.34A8.35,8.35,0,0,0,17.3,24.31Zm2-5.46a27.75,27.75,0,0,0,.49-4.92h3.73a15.34,15.34,0,0,1-.93,4.92Zm5.08-4.92h1.73a12.52,12.52,0,0,1-1.18,4.92H23.47A16.2,16.2,0,0,0,24.36,13.92Zm.11-6.62H23.14a13.57,13.57,0,0,0-2.32-3.75h.41A12.78,12.78,0,0,1,24.47,7.3ZM20,2.69ZM5.72,3.55h.41A13,13,0,0,0,4.29,6.26h0l-.18.38L3.91,7h0l-.12.27H2.48A13.37,13.37,0,0,1,3.2,6.16,12.66,12.66,0,0,1,5.72,3.55ZM2.48,19.7H3.81a13.51,13.51,0,0,0,2.32,3.75H5.72A12.72,12.72,0,0,1,2.48,19.7ZM7,24.31H7Zm13,0Zm1.23-.85h-.41a13.6,13.6,0,0,0,2.32-3.75h1.33A12.74,12.74,0,0,1,21.23,23.45Z"></path></svg>
